X: 6845
T: Charlie Lennon's Scottish Concerto
R: strathspey
M: 4/4
K: Amajor
A2 (3AAA AcED|cEAG AcBA|d2 ef ecac|(3dcB (3cBA BF A2|
A2 (3AAA AcED|cEAG AcBA|dfga efga|1 (3edc (3dcB A4:|2 (3edc (3dcB ABce||
f2 fe fagf|ecaf ecAF|DFBd CEAc|dfec Bcde|
fdag f2 fe|de f2 ecAF|EccE (3ABc df|1 GABc ABce:|2 GABc A4||

